icon-svg/hoymiles-inverter.svg

<svg xmlns="http://www.w3.org/2000/svg" viewBox="0 0 24 24"><path fill="#44739e" d="m21.366 14.836.008-.13h-1.042l.012.15-.8-.02-.3-.3-1.744-.037v-.166h2.309v.147h1l.012-.115h.606v-.166l-.6-.023v-.147h-1.04v.17H17.5v-.191l1.669-.037.3-.3.8-.02-.012.151H21.3v-.133l.634.016v-.2l-.615-.016v-.107h-1.05v.159H19.4l-.336.329-1.562.027v-.208h.761l.551-.4v.143h.309l.079-.127h.951v-.193l-.884-.029-.147-.159H18.8v.195l-.6.443h-.7v-.243h-.348V9.813a.48.48 0 0 0-.478-.477h-1.25V8.044a.326.326 0 0 0-.324-.325h-.5v.634l.332-.016.014 1H14.6v-.714h-.27v-.9H9.624v.555h.4v.821H9.83v.238h-.206v-.683l-.269-.031v-.9h-.317a.3.3 0 0 0-.3.3v1.313H7.056v.618h-.269v.127h-.238v.174H4.283v.222h2.266v.191h.238v.095h.269v1.41H5.915v.46h1.141v.666h-.348v.253h-.856l-.6-.443v-.191h-.316l-.146.159-.884.029v.193h.951l.079.127h.31v-.143l.55.4h.92v.208l-1.72-.029-.337-.329h-.872v-.159h-1.05v.107l-.614.016v.2l.634-.016-.008.131h1.042l-.012-.151.8.02.3.3 1.827.042v.153H4.471v-.177h-1.04v.147l-.6.024v.17h.607l.011.115h1v-.146h2.259v.2l-1.9.043-.3.3-.8.02.012-.151H2.678l.008.131-.634-.016v.2l.614.016v.107h1.05v-.16h.864l.337-.329 1.791-.031v.152h.348v.963a.527.527 0 0 0 .528.527h9.046a.524.524 0 0 0 .524-.523v-.969h.346v-.159l1.633.028.337.329h.864v.158h1.05v-.107l.616-.015v-.2ZM10.524 8.399l3.251-.033-.011.967h-3.2Zm-8.35 2.364h.191v.158l1.347-.253v-.587l-1.316-.285v.158l-.222-.016v-.142H2v1.125h.206Zm1.649-.682h.38v.586h-.38Z"/></svg>

<?xml version="1.0" encoding="UTF-8"?>
<svg width="24px" fill="#44739e" height="24px" viewBox="0 0 24 24" version="1.1" xmlns="http://www.w3.org/2000/svg" xmlns:xlink="http://www.w3.org/1999/xlink">
            <path d="m 21.366,14.837 0.008,-0.13 h -1.042 l 0.012,0.15 -0.8,-0.02 -0.3,-0.3 L 17.5,14.5 v -0.166 h 2.309 v 0.147 h 1 l 0.012,-0.115 h 0.606 V 14.2 l -0.6,-0.023 V 14.03 h -1.04 V 14.2 H 17.5 v -0.191 l 1.669,-0.037 0.3,-0.3 0.8,-0.02 -0.012,0.151 H 21.3 V 13.67 l 0.634,0.016 v -0.2 L 21.319,13.47 v -0.107 h -1.05 v 0.159 H 19.4 l -0.336,0.329 -1.562,0.027 V 13.67 h 0.761 l 0.551,-0.4 v 0.143 h 0.309 l 0.079,-0.127 h 0.951 V 13.093 L 19.269,13.064 19.122,12.905 H 18.8 V 13.1 l -0.6,0.443 H 17.5 V 13.3 H 17.152 V 9.814 A 0.478,0.478 0 0 0 16.674,9.337 h -1.25 V 8.045 A 0.326,0.326 0 0 0 15.1,7.72 h -0.5 v 0.634 l 0.332,-0.016 0.014,1 H 14.6 V 8.624 h -0.27 v -0.9 H 9.624 v 0.555 h 0.4 V 9.1 H 9.83 V 9.338 H 9.624 V 8.655 L 9.355,8.624 v -0.9 H 9.038 a 0.3,0.3 0 0 0 -0.3,0.3 V 9.337 H 7.056 V 9.955 H 6.787 v 0.127 H 6.549 v 0.174 H 4.283 v 0.222 h 2.266 v 0.191 h 0.238 v 0.095 h 0.269 v 1.41 H 5.915 v 0.46 H 7.056 V 13.3 H 6.708 v 0.253 H 5.852 L 5.252,13.11 V 12.919 H 4.936 L 4.79,13.078 3.906,13.107 V 13.3 h 0.951 l 0.079,0.127 h 0.31 v -0.143 l 0.55,0.4 h 0.92 v 0.208 L 4.996,13.863 4.659,13.534 H 3.787 v -0.159 h -1.05 v 0.107 l -0.614,0.016 v 0.2 l 0.634,-0.016 -0.008,0.131 h 1.042 l -0.012,-0.151 0.8,0.02 0.3,0.3 1.827,0.042 v 0.153 H 4.471 V 14 h -1.04 v 0.147 l -0.6,0.024 v 0.17 h 0.607 l 0.011,0.115 h 1 V 14.31 h 2.259 v 0.2 l -1.9,0.043 -0.3,0.3 -0.8,0.02 0.012,-0.151 H 2.678 l 0.008,0.131 -0.634,-0.016 v 0.2 l 0.614,0.016 v 0.107 h 1.05 V 15 H 4.58 L 4.917,14.671 6.708,14.64 v 0.152 h 0.348 v 0.963 a 0.527,0.527 0 0 0 0.528,0.527 h 9.046 a 0.524,0.524 0 0 0 0.524,-0.523 V 14.79 H 17.5 v -0.159 l 1.633,0.028 0.337,0.329 h 0.864 v 0.158 h 1.05 V 15.039 L 22,15.024 v -0.2 z M 10.524,8.4 13.775,8.367 13.764,9.334 h -3.2 z m -8.35,2.364 h 0.191 v 0.158 L 3.712,10.669 V 10.082 L 2.396,9.797 V 9.955 L 2.174,9.939 V 9.797 H 2 v 1.125 h 0.206 z m 1.649,-0.682 h 0.3799999 v 0.586 H 3.823 Z"/>

</svg>
